X: 232
T: Başka Bir Aşk İstemez
C: Musa Süreyya Bey
O: Turkey
F: http://compmusic.upf.edu/node/140
N: rast--mars--sofyan--baska_bir--musa_sureyya_bey
N: makam= rast
N: form= mars
N: usul= sofyan = 4/4
M: 4/4
L: 1/16
K: C _1/4B ^f  
Q: 1/4=96
%%MIDI tuningsystem comma53
z12 G3G  | B8 c4 A3A  | G8 B4 d4  | g4 f2g2 a4 f3e  | \
w:  Baş ka   |  bir  aşk  is te  |  mez  aş kın  |  la  çar *  par  kal bi  | 
d4 z8 G3G  | B8 c4 A3A  | 
w:  miz   Baş ka   |  bir  aşk  is te  | 
G8 B4 d4  | g4 f2g2 a4 f3e  | d4 z8 d3d  | \
w:  mez  aş kın  |  la  çar *  par  kal bi  |  miz   Ey  va  | 
g8 c4 e4  | d8 B4 G4  | c4 d2c2 B4 A3B  | 
w:  tan  göz yaş  |  la rın  din  |  sin  ye tiş tik  çün kü   | 
G4 z8 d3d  | g8 c4 e4  | d8 B4 G4  | c4 d2c2 B4 A3B  | \
w:  biz   Ey  va  |  tan  göz yaş  |  la rın  din  |  sin  ye tiş tik  çün kü   | 
G4 z8 d3d  | d8 _B4 G4  | 
w:  biz   Gül  ki   |  sen  neş en  | 
F8 d4 _e4  | d4 f2g2 a4 f3_e  | d4 z8 d3d  | \
w:  le  gül sün   |  ay  gü neş  top rak  de  |  niz   Gül  ki   | 
d8 _B4 G4  | F8 d4 _e4  | d4 f2g2 a4 f3_e  | 
w:  sen  neş en  |  le  gül sün   |  ay  gü neş  top rak  de  | 
d4 z8 d3d  | g8 c4 e4  | d8 B4 G4  | c4 d2c2 B4 A3B  | \
w:  niz   Ey  va  |  tan  göz yaş  |  la rın  din  |  sin  ye tiş tik  çün kü   | 
G4 z8 d3d  | g8 c4 e4  | 
w:  biz   Ey  va  |  tan  göz yaş  | 
d8 B4 G4  | c4 d2c2 B4 A3B  | G4 z12  | \
w:  la rın  din  |  sin  ye tiş tik  çün kü   |  biz    | 
z12 G3G  | B8 c4 A3A  | G8 B4 d4  | 
w:  Baş ka   |  bir  aşk  is te  |  mez  aş kın  | 
g4 f2g2 a4 f3e  | d4 z8 G3G  | B8 c4 A3A  | \
w:  la  çar *  par  kal bi  |  miz   Baş ka   |  bir  aşk  is te  | 
G8 B4 d4  | g4 f2g2 a4 f3e  | 
w:  mez  aş kın  |  la  çar *  par  kal bi  | 
d4 z8 d3d  | g8 c4 e4  | d8 B4 G4  | c4 d2c2 B4 A3B  | \
w:  miz   Ey  va  |  tan  göz yaş  |  la rın  din  |  sin  ye tiş tik  çün kü   | 
G4 z8 d3d  | g8 c4 e4  | 
w:  biz   Ey  va  |  tan  göz yaş  | 
d8 B4 G4  | c4 d2c2 B4 A3B  | G4 z8 d3d  | \
w:  la rın  din  |  sin  ye tiş tik  çün kü   |  biz   Gül  ki   | 
d8 _B4 G4  | F8 d4 _e4  | d4 f2g2 a4 f3_e  | 
w:  sen  neş en  |  le  gül sün   |  ay  gü neş  top rak  de  | 
d4 z8 d3d  | d8 _B4 G4  | F8 d4 _e4  | d4 f2g2 a4 f3_e  | \
w:  niz   Gül  ki   |  sen  neş en  |  le  gül sün   |  ay  gü neş  top rak  de  | 
d4 z8 d3d  | g8 c4 e4  | 
w:  niz   Ey  va  |  tan  göz yaş  | 
d8 B4 G4  | c4 d2c2 B4 A3B  | G4 z8 d3d  | \
w:  la rın  din  |  sin  ye tiş tik  çün kü   |  biz   Ey  va  | 
g8 c4 e4  | d8 B4 G4  | c4 d2c2 B4 A3B  | 
w:  tan  göz yaş  |  la rın  din  |  sin  ye tiş tik  çün kü   | 
G4 z12  | |


